static/icons/github.svg

<svg xmlns="http://www.w3.org/2000/svg" width="24" height="24" viewBox="0 0 24 24">
  <path fill-rule="evenodd" d="M7.32142857,6.42857143 C8.892865,4.80951571 10.7857032,4 13,4 C15.2142968,4 17.1011827,4.80356339 18.6607143,6.41071429 C20.2202459,8.01786518 21,9.95236964 21,12.2142857 C21,14.0000089 20.4881004,15.6071357 19.4642857,17.0357143 C18.4404711,18.4642929 17.1309604,19.4523782 15.5357143,20 L15.3928571,20 C15.1071414,20 14.9642857,19.8571443 14.9642857,19.5714286 C14.9642857,19.5476189 14.970238,19.2797645 14.9821429,18.7678571 C14.9940477,18.2559498 15,17.7857164 15,17.3571429 C15,16.6666632 14.8095257,16.1547636 14.4285714,15.8214286 C15.523815,15.6785707 16.4107109,15.3273837 17.0892857,14.7678571 C17.7678605,14.2083305 18.1071429,13.2142929 18.1071429,11.7857143 C18.1071429,10.9285671 17.8333361,10.1904793 17.2857143,9.57142857 C17.5238107,8.88094893 17.5000014,8.15476571 17.2142857,7.39285714 L17.0357143,7.39285714 C16.4880925,7.39285714 15.8095279,7.67856857 15,8.25 C14.3095204,8.05952286 13.6428604,7.96428571 13,7.96428571 C12.3571396,7.96428571 11.6904796,8.05952286 11,8.25 C10.1904721,7.67856857 9.5119075,7.39285714 8.96428571,7.39285714 L8.78571429,7.39285714 C8.49999857,8.15476571 8.47618929,8.88094893 8.71428571,9.57142857 C8.16666393,10.1904793 7.89285714,10.9285671 7.89285714,11.7857143 C7.89285714,13.2142929 8.22618714,14.2083305 8.89285714,14.7678571 C9.55952714,15.3273837 10.4404707,15.6785707 11.5357143,15.8214286 C11.2738082,16.0833346 11.1071432,16.4523786 11.0357143,16.9285714 C10.7499986,17.0714293 10.4404779,17.1428571 10.1071429,17.1428571 C9.51190179,17.1428571 9.04762071,16.8452411 8.71428571,16.25 C8.40476036,15.7261879 7.98809786,15.4404764 7.46428571,15.3928571 C6.96428321,15.3928571 6.95237857,15.5595221 7.42857143,15.8928571 C7.78571607,16.0833343 8.08333214,16.4880921 8.32142857,17.1071429 C8.34523821,17.2023814 8.39285679,17.3154755 8.46428571,17.4464286 C8.53571464,17.5773816 8.73214125,17.7499989 9.05357143,17.9642857 C9.37500161,18.1785725 9.7619025,18.2857143 10.2142857,18.2857143 C10.5476207,18.2857143 10.8095229,18.261905 11,18.2142857 L11,19.6071429 C11,19.8690489 10.8690489,20 10.6071429,20 L10.4642857,20 C8.84523,19.4523782 7.52976696,18.4702452 6.51785714,17.0535714 C5.50594732,15.6368977 5,14.0238186 5,12.2142857 C5,9.95236964 5.77380179,8.0238175 7.32142857,6.42857143 Z"/>
</svg>

<svg xmlns="http://www.w3.org/2000/svg" width="24" height="24">
    <path fill-rule="evenodd" d="M7.321 6.429C8.893 4.809 10.786 4 13 4c2.214 0 4.101.804 5.66 2.41C20.22 8.019 21 9.953 21 12.215c0 1.786-.512 3.393-1.536 4.822-1.024 1.428-2.333 2.416-3.928 2.964h-.143c-.286 0-.429-.143-.429-.429l.018-.803c.012-.512.018-.982.018-1.41 0-.691-.19-1.203-.571-1.537 1.095-.142 1.982-.494 2.66-1.053.679-.56 1.018-1.554 1.018-2.982 0-.857-.274-1.596-.821-2.215.238-.69.214-1.416-.072-2.178h-.178c-.548 0-1.226.286-2.036.857a7.511 7.511 0 0 0-2-.286c-.643 0-1.31.096-2 .286-.81-.571-1.488-.857-2.036-.857h-.178c-.286.762-.31 1.488-.072 2.178-.547.62-.821 1.358-.821 2.215 0 1.428.333 2.422 1 2.982s1.547.91 2.643 1.053c-.262.262-.429.631-.5 1.108a2.047 2.047 0 0 1-.929.214c-.595 0-1.06-.298-1.393-.893-.31-.524-.726-.81-1.25-.857-.5 0-.512.167-.035.5.357.19.654.595.892 1.214.024.095.072.208.143.34.072.13.268.303.59.517.321.215.708.322 1.16.322.334 0 .596-.024.786-.072v1.393c0 .262-.131.393-.393.393h-.143c-1.619-.548-2.934-1.53-3.946-2.946C5.506 15.637 5 14.024 5 12.214c0-2.262.774-4.19 2.321-5.785z"/>
</svg>
